SVG/img-revolution-3.svg

<svg width="70" height="90" viewBox="0 0 70 90" fill="none" xmlns="http://www.w3.org/2000/svg">
<path d="M49.4537 23.28C49.4537 10.42 34.6437 0 34.6437 0C34.6437 0 19.8337 10.42 19.8337 23.28C19.8337 33.2 28.6537 41.67 32.6837 45.02V89.68H36.6637V44.98C40.7137 41.6 49.4637 33.16 49.4637 23.28H49.4537Z" fill="#07E993"/>
<path d="M68.8437 35.3104C68.8437 35.3104 54.0837 32.7404 46.5737 40.2604C41.3537 45.4804 40.9937 54.2004 41.2637 59.0304V89.6804H45.2437V62.9004C50.1037 63.1604 58.7137 62.7704 63.8937 57.5904C71.4137 50.0704 68.8437 35.3204 68.8437 35.3204V35.3104Z" fill="#07E993"/>
<path d="M22.7036 40.2604C15.1836 32.7404 0.423635 35.3104 0.423635 35.3104C0.423635 35.3104 -2.14637 50.0704 5.37363 57.5804C10.5536 62.7604 19.1736 63.1504 24.0236 62.8904V89.6704H28.0036V59.0204C28.2736 54.1804 27.9136 45.4704 22.6936 40.2504L22.7036 40.2604Z" fill="#07E993"/>
</svg>

<?xml version="1.0" encoding="UTF-8"?>
<svg id="Layer_2" data-name="Layer 2" xmlns="http://www.w3.org/2000/svg" xmlns:xlink="http://www.w3.org/1999/xlink" viewBox="0 0 69.27 89.68">
  <defs>
    <style>
      .cls-1 {
        fill: url(#linear-gradient);
      }

      .cls-1, .cls-2, .cls-3 {
        stroke-width: 0px;
      }

      .cls-2 {
        fill: url(#linear-gradient-2);
      }

      .cls-3 {
        fill: url(#linear-gradient-3);
      }
    </style>
    <linearGradient id="linear-gradient" x1="23.55" y1="76.34" x2="39.31" y2="6.28" gradientUnits="userSpaceOnUse">
      <stop offset="0" stop-color="red"/>
      <stop offset="1" stop-color="#464961"/>
    </linearGradient>
    <linearGradient id="linear-gradient-2" x1="47.83" y1="81.8" x2="63.6" y2="11.74" xlink:href="#linear-gradient"/>
    <linearGradient id="linear-gradient-3" x1="11.7" y1="73.67" x2="27.46" y2="3.61" xlink:href="#linear-gradient"/>
  </defs>
  <g id="Design">
    <g>
      <path class="cls-1" d="M49.45,23.28c0-12.86-14.81-23.28-14.81-23.28,0,0-14.81,10.42-14.81,23.28,0,9.92,8.82,18.39,12.85,21.74v44.66h3.98v-44.7c4.05-3.38,12.8-11.82,12.8-21.7Z"/>
      <path class="cls-2" d="M68.84,35.31s-14.76-2.57-22.27,4.95c-5.22,5.22-5.58,13.94-5.31,18.77v30.65h3.98v-26.78c4.86.26,13.47-.13,18.65-5.31,7.52-7.52,4.95-22.27,4.95-22.27Z"/>
      <path class="cls-3" d="M22.7,40.26C15.18,32.74.42,35.31.42,35.31c0,0-2.57,14.76,4.95,22.27,5.18,5.18,13.8,5.57,18.65,5.31v26.78h3.98v-30.65c.27-4.84-.09-13.55-5.31-18.77Z"/>
    </g>
  </g>
</svg>
